svg/home-team-title-bg.svg

<svg width="346" height="122" viewBox="0 0 346 122" fill="none" xmlns="http://www.w3.org/2000/svg">
<path d="M318 28.9999C304.564 20.7095 291.702 12.8355 276.222 9.11099C264.601 6.31501 252.685 4.86342 240.778 3.99988C206.576 1.51962 172.885 1.40513 139 6.99988C112.511 11.3734 85.3969 16.6486 60.2222 26.2221C45.3269 31.8865 26.3332 38.9023 18.4444 53.9999C13.6013 63.2685 12.7698 79.481 19.2222 88.111C28.9837 101.167 52.3577 101.956 66.7777 104.222C87.573 107.49 108.182 112.351 129 115.222C150.483 118.185 171.851 119 193.5 119C222.303 119 252.875 119.715 281.444 115.5C298.613 112.967 314.091 112.593 328.555 102C338.643 94.6115 345.473 86.7388 343.778 73.5554C341.892 58.8908 337.002 44.002 325.889 33.9999C304.454 14.7086 277.302 9.2229 249.389 7.49988C210.108 5.07517 171.441 9.37181 132.778 15.9999C115.322 18.9922 97.594 23.1809 80.5555 27.9999C65.974 32.1239 51.7406 35.6851 38.111 42.4999C24.1348 49.488 -5.61618 66.1935 3.44437 86.2221C14.4204 110.485 39.3543 119.854 64.2222 120C105.141 120.239 146.049 117.985 186.944 117.055C213.982 116.441 240.94 116.276 267.944 114.5C277.039 113.902 286.202 113.504 295.111 111.5C300.299 110.333 307.813 110.14 312 107" stroke="#4D4D4D" stroke-width="3" stroke-linecap="round"/>
</svg>

<svg xmlns="http://www.w3.org/2000/svg" width="346" height="122" fill="none"><path stroke="#4D4D4D" stroke-linecap="round" stroke-width="3" d="M318 29c-13.436-8.29-26.298-16.165-41.778-19.889C264.601 6.315 252.685 4.863 240.778 4 206.576 1.52 172.885 1.405 139 7c-26.489 4.373-53.603 9.649-78.778 19.222C45.327 31.887 26.333 38.902 18.444 54c-4.843 9.269-5.674 25.481.778 34.111 9.762 13.056 33.136 13.845 47.556 16.111 20.795 3.268 41.404 8.129 62.222 11 21.483 2.963 42.851 3.778 64.5 3.778 28.803 0 59.375.715 87.944-3.5 17.169-2.533 32.647-2.907 47.111-13.5 10.088-7.388 16.918-15.261 15.223-28.445-1.886-14.664-6.776-29.553-17.889-39.555-21.435-19.291-48.587-24.777-76.5-26.5-39.281-2.425-77.948 1.872-116.611 8.5-17.456 2.992-35.184 7.18-52.222 12-14.582 4.124-28.815 7.685-42.445 14.5C24.135 49.488-5.616 66.194 3.444 86.222 14.42 110.485 39.354 119.854 64.222 120c40.919.239 81.827-2.015 122.722-2.945 27.038-.614 53.996-.779 81-2.555 9.095-.598 18.258-.996 27.167-3 5.188-1.167 12.702-1.36 16.889-4.5"/></svg>
